dist/uber/img/icons/facebook.svg

<svg width="19" height="18" viewBox="0 0 19 18" fill="none" xmlns="https://www.w3.org/2000/svg">
<g clip-path="url(#clip0_10_2)">
<path d="M12.3285 2.98875H13.9474V0.12675C13.6681 0.08775 12.7076 0 11.589 0C9.25495 0 7.65609 1.49025 7.65609 4.22925V6.75H5.08047V9.9495H7.65609V18H10.8139V9.95025H13.2854L13.6777 6.75075H10.8132V4.5465C10.8139 3.62175 11.0592 2.98875 12.3285 2.98875Z" fill="white"/>
</g>
<defs>
<clipPath id="clip0_10_2">
<rect width="17.7323" height="18" fill="white" transform="translate(0.509232)"/>
</clipPath>
</defs>
</svg>

<svg width="19" height="18" fill="none" xmlns="http://www.w3.org/2000/svg"><g clip-path="url(#clip0_10_2)"><path d="M12.329 2.989h1.618V.127C13.668.087 12.707 0 11.59 0 9.255 0 7.656 1.49 7.656 4.23v2.52H5.08v3.2h2.576V18h3.158V9.95h2.471l.393-3.2h-2.865V4.547c0-.924.246-1.557 1.515-1.557z" fill="#fff"/></g><defs><clipPath id="clip0_10_2"><path fill="#fff" transform="translate(.51)" d="M0 0h17.732v18H0z"/></clipPath></defs></svg>
